documentation/public/assets/images/02-link-structure.svg

<svg width="672" height="73" viewBox="0 0 672 73" fill="none" xmlns="http://www.w3.org/2000/svg">
<rect width="672" height="73" fill="#F6F6F6"/>
<path d="M293.861 41V32.2727H295.442V39.6747H299.286V41H293.861ZM300.589 41V34.4545H302.132V41H300.589ZM301.365 33.5256C301.121 33.5256 300.911 33.4446 300.734 33.2827C300.558 33.1179 300.47 32.9205 300.47 32.6903C300.47 32.4574 300.558 32.2599 300.734 32.098C300.911 31.9332 301.121 31.8509 301.365 31.8509C301.612 31.8509 301.822 31.9332 301.996 32.098C302.172 32.2599 302.26 32.4574 302.26 32.6903C302.26 32.9205 302.172 33.1179 301.996 33.2827C301.822 33.4446 301.612 33.5256 301.365 33.5256ZM305.261 37.1648V41H303.718V34.4545H305.193V35.5668H305.27C305.42 35.2003 305.66 34.9091 305.99 34.6932C306.322 34.4773 306.733 34.3693 307.221 34.3693C307.673 34.3693 308.066 34.4659 308.402 34.6591C308.74 34.8523 309.001 35.1321 309.186 35.4986C309.373 35.8651 309.466 36.3097 309.463 36.8324V41H307.92V37.071C307.92 36.6335 307.806 36.2912 307.579 36.044C307.355 35.7969 307.044 35.6733 306.646 35.6733C306.376 35.6733 306.136 35.733 305.926 35.8523C305.718 35.9687 305.555 36.1378 305.436 36.3594C305.319 36.581 305.261 36.8494 305.261 37.1648ZM312.437 38.946L312.433 37.0838H312.68L315.032 34.4545H316.835L313.941 37.6761H313.622L312.437 38.946ZM311.031 41V32.2727H312.574V41H311.031ZM315.139 41L313.008 38.0213L314.048 36.9347L316.984 41H315.139ZM323.865 41H320.908V32.2727H323.925C324.791 32.2727 325.536 32.4474 326.158 32.7969C326.783 33.1435 327.263 33.642 327.598 34.2926C327.933 34.9432 328.101 35.7216 328.101 36.6278C328.101 37.5369 327.932 38.3182 327.594 38.9716C327.259 39.625 326.774 40.1264 326.141 40.4759C325.51 40.8253 324.751 41 323.865 41ZM322.489 39.6321H323.788C324.396 39.6321 324.903 39.5213 325.31 39.2997C325.716 39.0753 326.021 38.7415 326.226 38.2983C326.43 37.8523 326.533 37.2955 326.533 36.6278C326.533 35.9602 326.43 35.4062 326.226 34.9659C326.021 34.5227 325.719 34.1918 325.318 33.973C324.92 33.7514 324.426 33.6406 323.835 33.6406H322.489V39.6321ZM332.433 41.1278C331.776 41.1278 331.21 40.9915 330.732 40.7188C330.258 40.4432 329.893 40.054 329.637 39.5511C329.381 39.0455 329.254 38.4503 329.254 37.7656C329.254 37.0923 329.381 36.5014 329.637 35.9929C329.896 35.4815 330.256 35.0838 330.719 34.7997C331.183 34.5128 331.727 34.3693 332.352 34.3693C332.755 34.3693 333.136 34.4347 333.494 34.5653C333.854 34.6932 334.173 34.892 334.448 35.1619C334.727 35.4318 334.945 35.7756 335.104 36.1932C335.263 36.608 335.343 37.1023 335.343 37.6761V38.1491H329.978V37.1094H333.864C333.862 36.8139 333.798 36.5511 333.673 36.321C333.548 36.0881 333.373 35.9048 333.148 35.7713C332.927 35.6378 332.668 35.571 332.373 35.571C332.058 35.571 331.781 35.6477 331.542 35.8011C331.303 35.9517 331.117 36.1506 330.984 36.3977C330.853 36.642 330.786 36.9105 330.783 37.2031V38.1108C330.783 38.4915 330.853 38.8182 330.992 39.0909C331.131 39.3608 331.326 39.5682 331.576 39.7131C331.826 39.8551 332.119 39.9261 332.454 39.9261C332.678 39.9261 332.881 39.8949 333.063 39.8324C333.245 39.767 333.403 39.6719 333.536 39.5469C333.67 39.4219 333.771 39.267 333.839 39.0824L335.279 39.2443C335.188 39.625 335.015 39.9574 334.759 40.2415C334.506 40.5227 334.183 40.7415 333.788 40.8977C333.393 41.0511 332.941 41.1278 332.433 41.1278ZM339.963 34.4545V35.6477H336.094V34.4545H339.963ZM337.061 41V33.8366C337.061 33.3963 337.152 33.0298 337.334 32.7372C337.519 32.4446 337.766 32.2259 338.076 32.081C338.385 31.9361 338.729 31.8636 339.107 31.8636C339.374 31.8636 339.611 31.8849 339.819 31.9276C340.026 31.9702 340.179 32.0085 340.279 32.0426L339.972 33.2358C339.907 33.2159 339.824 33.196 339.725 33.1761C339.625 33.1534 339.515 33.142 339.392 33.142C339.105 33.142 338.902 33.2116 338.783 33.3509C338.667 33.4872 338.608 33.6832 338.608 33.9389V41H337.061ZM342.832 41.1321C342.418 41.1321 342.044 41.0582 341.712 40.9105C341.382 40.7599 341.121 40.5384 340.928 40.2457C340.737 39.9531 340.642 39.5923 340.642 39.1634C340.642 38.794 340.71 38.4886 340.847 38.2472C340.983 38.0057 341.169 37.8125 341.405 37.6676C341.641 37.5227 341.906 37.4134 342.202 37.3395C342.5 37.2628 342.808 37.2074 343.126 37.1733C343.51 37.1335 343.821 37.098 344.06 37.0668C344.298 37.0327 344.472 36.9815 344.58 36.9134C344.69 36.8423 344.746 36.733 344.746 36.5852V36.5597C344.746 36.2386 344.651 35.9901 344.46 35.8139C344.27 35.6378 343.996 35.5497 343.638 35.5497C343.26 35.5497 342.96 35.6321 342.739 35.7969C342.52 35.9616 342.372 36.1562 342.295 36.3807L340.855 36.1761C340.969 35.7784 341.156 35.446 341.418 35.179C341.679 34.9091 341.999 34.7074 342.376 34.5739C342.754 34.4375 343.172 34.3693 343.629 34.3693C343.945 34.3693 344.259 34.4062 344.571 34.4801C344.884 34.554 345.169 34.6761 345.428 34.8466C345.686 35.0142 345.893 35.2429 346.05 35.5327C346.209 35.8224 346.288 36.1847 346.288 36.6193V41H344.805V40.1009H344.754C344.661 40.2827 344.528 40.4531 344.358 40.6122C344.19 40.7685 343.979 40.8949 343.723 40.9915C343.47 41.0852 343.173 41.1321 342.832 41.1321ZM343.233 39.9986C343.543 39.9986 343.811 39.9375 344.038 39.8153C344.266 39.6903 344.44 39.5256 344.562 39.321C344.688 39.1165 344.75 38.8935 344.75 38.652V37.8807C344.702 37.9205 344.619 37.9574 344.503 37.9915C344.389 38.0256 344.261 38.0554 344.119 38.081C343.977 38.1065 343.837 38.1293 343.697 38.1491C343.558 38.169 343.438 38.1861 343.335 38.2003C343.105 38.2315 342.899 38.2827 342.717 38.3537C342.536 38.4247 342.392 38.5241 342.287 38.652C342.182 38.777 342.129 38.9389 342.129 39.1378C342.129 39.4219 342.233 39.6364 342.44 39.7812C342.648 39.9261 342.912 39.9986 343.233 39.9986ZM352.011 38.2472V34.4545H353.554V41H352.058V39.8366H351.99C351.842 40.2031 351.599 40.5028 351.261 40.7358C350.926 40.9687 350.513 41.0852 350.021 41.0852C349.592 41.0852 349.213 40.9901 348.884 40.7997C348.557 40.6065 348.301 40.3267 348.116 39.9602C347.932 39.5909 347.839 39.1449 347.839 38.6222V34.4545H349.382V38.3835C349.382 38.7983 349.496 39.1278 349.723 39.3722C349.95 39.6165 350.249 39.7386 350.618 39.7386C350.845 39.7386 351.065 39.6832 351.278 39.5724C351.491 39.4616 351.666 39.2969 351.803 39.0781C351.942 38.8565 352.011 38.5795 352.011 38.2472ZM356.683 32.2727V41H355.14V32.2727H356.683ZM361.538 34.4545V35.6477H357.775V34.4545H361.538ZM358.704 32.8864H360.246V39.0312C360.246 39.2386 360.278 39.3977 360.34 39.5085C360.406 39.6165 360.491 39.6903 360.596 39.7301C360.701 39.7699 360.817 39.7898 360.945 39.7898C361.042 39.7898 361.13 39.7827 361.21 39.7685C361.292 39.7543 361.354 39.7415 361.397 39.7301L361.657 40.9361C361.575 40.9645 361.457 40.9957 361.303 41.0298C361.153 41.0639 360.968 41.0838 360.749 41.0895C360.363 41.1009 360.015 41.0426 359.705 40.9148C359.396 40.7841 359.15 40.5824 358.968 40.3097C358.789 40.0369 358.701 39.696 358.704 39.2869V32.8864ZM367.066 34.4545L368.387 36.8707L369.729 34.4545H371.361L369.388 37.7273L371.395 41H369.772L368.387 38.6435L367.015 41H365.378L367.373 37.7273L365.429 34.4545H367.066ZM377.728 36.1847L376.321 36.3381C376.282 36.196 376.212 36.0625 376.113 35.9375C376.016 35.8125 375.885 35.7116 375.721 35.6349C375.556 35.5582 375.354 35.5199 375.115 35.5199C374.794 35.5199 374.525 35.5895 374.306 35.7287C374.09 35.8679 373.983 36.0483 373.986 36.2699C373.983 36.4602 374.053 36.6151 374.195 36.7344C374.34 36.8537 374.578 36.9517 374.911 37.0284L376.027 37.267C376.647 37.4006 377.107 37.6122 377.408 37.902C377.712 38.1918 377.865 38.571 377.868 39.0398C377.865 39.4517 377.745 39.8153 377.506 40.1307C377.27 40.4432 376.942 40.6875 376.522 40.8636C376.101 41.0398 375.618 41.1278 375.073 41.1278C374.272 41.1278 373.627 40.9602 373.138 40.625C372.65 40.2869 372.358 39.8168 372.265 39.2145L373.769 39.0696C373.837 39.3651 373.982 39.5881 374.203 39.7386C374.425 39.8892 374.713 39.9645 375.069 39.9645C375.435 39.9645 375.729 39.8892 375.951 39.7386C376.175 39.5881 376.287 39.402 376.287 39.1804C376.287 38.9929 376.215 38.8381 376.07 38.7159C375.928 38.5937 375.706 38.5 375.405 38.4347L374.289 38.2003C373.661 38.0696 373.196 37.8494 372.895 37.5398C372.594 37.2273 372.445 36.8324 372.448 36.3551C372.445 35.9517 372.554 35.6023 372.776 35.3068C373 35.0085 373.311 34.7784 373.709 34.6165C374.11 34.4517 374.571 34.3693 375.094 34.3693C375.861 34.3693 376.465 34.5327 376.905 34.8594C377.348 35.1861 377.623 35.6278 377.728 36.1847Z" fill="#0F67F5"/>
<path d="M231.881 41V33.7273H232.761V40.2188H236.142V41H231.881ZM238.997 41.1278C238.652 41.1278 238.338 41.0627 238.056 40.9325C237.774 40.8 237.551 40.6094 237.385 40.3608C237.219 40.1098 237.136 39.8068 237.136 39.4517C237.136 39.1392 237.198 38.8859 237.321 38.6918C237.444 38.4953 237.609 38.3414 237.815 38.2301C238.021 38.1188 238.248 38.036 238.496 37.9815C238.747 37.9247 239 37.8797 239.253 37.8466C239.584 37.804 239.853 37.772 240.059 37.7507C240.267 37.727 240.419 37.688 240.513 37.6335C240.611 37.5791 240.659 37.4844 240.659 37.3494V37.321C240.659 36.9706 240.563 36.6984 240.371 36.5043C240.182 36.3101 239.894 36.2131 239.509 36.2131C239.108 36.2131 238.795 36.3007 238.567 36.4759C238.34 36.651 238.18 36.8381 238.088 37.0369L237.293 36.7528C237.435 36.4214 237.624 36.1634 237.861 35.9787C238.1 35.7917 238.36 35.6615 238.642 35.5881C238.926 35.5123 239.205 35.4744 239.48 35.4744C239.655 35.4744 239.857 35.4957 240.084 35.5384C240.313 35.5786 240.535 35.6626 240.748 35.7905C240.963 35.9183 241.142 36.1113 241.284 36.3693C241.426 36.6274 241.497 36.973 241.497 37.4062V41H240.659V40.2614H240.616C240.56 40.3797 240.465 40.5064 240.332 40.6413C240.2 40.7763 240.023 40.8911 239.803 40.9858C239.583 41.0805 239.314 41.1278 238.997 41.1278ZM239.125 40.375C239.456 40.375 239.736 40.3099 239.963 40.1797C240.193 40.0495 240.366 39.8814 240.482 39.6754C240.6 39.4695 240.659 39.2528 240.659 39.0256V38.2585C240.624 38.3011 240.545 38.3402 240.425 38.3757C240.306 38.4089 240.169 38.4384 240.013 38.4645C239.859 38.4882 239.709 38.5095 239.562 38.5284C239.417 38.545 239.3 38.5592 239.21 38.571C238.992 38.5994 238.789 38.6456 238.599 38.7095C238.412 38.7711 238.261 38.8646 238.145 38.9901C238.031 39.1132 237.974 39.2812 237.974 39.4943C237.974 39.7855 238.082 40.0057 238.298 40.1548C238.515 40.3016 238.791 40.375 239.125 40.375ZM243.14 41V33.7273H243.979V36.4119H244.05C244.111 36.3172 244.196 36.1965 244.305 36.0497C244.416 35.9006 244.575 35.768 244.781 35.652C244.989 35.5336 245.271 35.4744 245.626 35.4744C246.086 35.4744 246.49 35.5893 246.841 35.8189C247.191 36.0485 247.465 36.3741 247.661 36.7955C247.858 37.2169 247.956 37.714 247.956 38.2869C247.956 38.8646 247.858 39.3653 247.661 39.7891C247.465 40.2105 247.192 40.5372 246.844 40.7692C246.496 40.9988 246.095 41.1136 245.64 41.1136C245.29 41.1136 245.01 41.0556 244.799 40.9396C244.588 40.8213 244.426 40.6875 244.312 40.5384C244.199 40.3868 244.111 40.2614 244.05 40.1619H243.95V41H243.14ZM243.964 38.2727C243.964 38.6847 244.025 39.0481 244.145 39.3629C244.266 39.6754 244.443 39.9205 244.675 40.098C244.907 40.2732 245.191 40.3608 245.527 40.3608C245.877 40.3608 246.17 40.2685 246.404 40.0838C246.641 39.8968 246.818 39.6458 246.937 39.331C247.057 39.0137 247.118 38.661 247.118 38.2727C247.118 37.8892 247.059 37.5436 246.94 37.2358C246.824 36.9257 246.648 36.6806 246.411 36.5007C246.177 36.3184 245.882 36.2273 245.527 36.2273C245.186 36.2273 244.899 36.3137 244.667 36.4865C244.435 36.657 244.26 36.8961 244.142 37.2038C244.023 37.5092 243.964 37.8655 243.964 38.2727ZM251.525 41.1136C250.999 41.1136 250.546 40.9976 250.165 40.7656C249.786 40.5312 249.493 40.2045 249.287 39.7855C249.084 39.3641 248.982 38.8741 248.982 38.3153C248.982 37.7566 249.084 37.2642 249.287 36.8381C249.493 36.4096 249.78 36.0758 250.147 35.8366C250.516 35.5952 250.947 35.4744 251.439 35.4744C251.724 35.4744 252.004 35.5218 252.281 35.6165C252.558 35.7112 252.81 35.8651 253.037 36.0781C253.265 36.2888 253.446 36.5682 253.581 36.9162C253.716 37.2642 253.783 37.6927 253.783 38.2017V38.5568H249.579V37.8324H252.931C252.931 37.5246 252.869 37.25 252.746 37.0085C252.626 36.767 252.453 36.5765 252.228 36.4368C252.005 36.2971 251.742 36.2273 251.439 36.2273C251.106 36.2273 250.817 36.3101 250.573 36.4759C250.331 36.6392 250.146 36.8523 250.015 37.1151C249.885 37.3778 249.82 37.6596 249.82 37.9602V38.4432C249.82 38.8551 249.891 39.2043 250.033 39.4908C250.178 39.7749 250.378 39.9915 250.633 40.1406C250.889 40.2874 251.186 40.3608 251.525 40.3608C251.745 40.3608 251.944 40.33 252.121 40.2685C252.301 40.2045 252.456 40.1098 252.586 39.9844C252.717 39.8565 252.817 39.6979 252.888 39.5085L253.698 39.7358C253.613 40.0104 253.47 40.2519 253.268 40.4602C253.067 40.6662 252.818 40.8272 252.523 40.9432C252.227 41.0568 251.894 41.1136 251.525 41.1136ZM255.896 33.7273V41H255.058V33.7273H255.896Z" fill="#E8178A"/>
<path d="M265 37.5L295 37.5" stroke="#E8178A"/>
<circle cx="294" cy="37.5" r="1" fill="#E8178A"/>
</svg>

<svg width="672" height="73" fill="none" xmlns="http://www.w3.org/2000/svg"><path fill="#F6F6F6" d="M0 0h672v73H0z"/><path d="M293.86 41v-8.73h1.58v7.4h3.85V41h-5.43Zm6.73 0v-6.55h1.54V41h-1.54Zm.78-7.47a.9.9 0 0 1-.64-.25.78.78 0 0 1-.26-.59c0-.23.09-.43.26-.6a.9.9 0 0 1 .63-.24.9.9 0 0 1 .64.25c.17.16.26.36.26.59 0 .23-.09.43-.26.6a.9.9 0 0 1-.63.24Zm3.9 3.63V41h-1.55v-6.55h1.47v1.12h.08c.15-.37.39-.66.72-.88.33-.21.74-.32 1.23-.32.45 0 .85.1 1.18.29.34.2.6.47.79.84.18.37.28.81.27 1.33V41h-1.54v-3.93c0-.44-.11-.78-.34-1.03a1.2 1.2 0 0 0-.93-.37c-.27 0-.51.06-.72.18-.21.12-.38.29-.5.5a1.7 1.7 0 0 0-.17.81Zm7.17 1.79v-1.87h.24l2.35-2.63h1.8l-2.89 3.23h-.32l-1.18 1.27Zm-1.4 2.05v-8.73h1.53V41h-1.54Zm4.1 0L313 38.02l1.04-1.09 2.93 4.07h-1.84Zm8.73 0h-2.96v-8.73h3.01c.87 0 1.62.18 2.24.53.62.34 1.1.84 1.44 1.5.33.64.5 1.42.5 2.33 0 .9-.17 1.69-.5 2.34a3.5 3.5 0 0 1-1.46 1.5c-.63.36-1.39.53-2.27.53Zm-1.38-1.37h1.3c.6 0 1.11-.1 1.52-.33.4-.22.71-.56.92-1 .2-.45.3-1 .3-1.67a4 4 0 0 0-.3-1.66 2.1 2.1 0 0 0-.91-1c-.4-.22-.9-.33-1.49-.33h-1.34v6Zm9.94 1.5c-.65 0-1.22-.14-1.7-.41a2.77 2.77 0 0 1-1.1-1.17 3.9 3.9 0 0 1-.38-1.78c0-.68.13-1.27.39-1.78a2.9 2.9 0 0 1 2.71-1.62 3.07 3.07 0 0 1 2.1.8c.28.26.5.6.65 1.02.16.42.24.91.24 1.49v.47h-5.36V37.1h3.88c0-.3-.06-.56-.19-.79a1.4 1.4 0 0 0-.52-.55 1.5 1.5 0 0 0-.78-.2 1.54 1.54 0 0 0-1.39.83c-.13.24-.2.51-.2.8v.91c0 .38.07.7.21.98.14.27.34.48.59.62a1.9 1.9 0 0 0 1.48.12 1.18 1.18 0 0 0 .78-.75l1.44.16c-.1.38-.26.72-.52 1-.25.28-.58.5-.97.66-.4.15-.85.23-1.36.23Zm7.53-6.68v1.2h-3.87v-1.2h3.87Zm-2.9 6.55v-7.16c0-.44.1-.81.27-1.1.19-.3.44-.51.75-.66.3-.14.65-.22 1.03-.22a3.56 3.56 0 0 1 1.17.18l-.3 1.2a2.67 2.67 0 0 0-.59-.1c-.28 0-.49.07-.6.21a.88.88 0 0 0-.18.59V41h-1.55Zm5.77.13a2.7 2.7 0 0 1-1.12-.22 1.8 1.8 0 0 1-.78-.66 1.9 1.9 0 0 1-.29-1.09c0-.37.07-.67.2-.91.14-.24.33-.44.56-.58.24-.15.5-.26.8-.33.3-.08.6-.13.93-.17l.93-.1c.24-.04.41-.09.52-.16a.36.36 0 0 0 .17-.32v-.03c0-.32-.1-.57-.29-.75a1.19 1.19 0 0 0-.82-.26c-.38 0-.68.08-.9.25-.22.16-.37.36-.44.58l-1.44-.2a2.3 2.3 0 0 1 1.52-1.6 4.07 4.07 0 0 1 2.2-.1c.3.07.59.2.85.37.26.16.46.4.62.68.16.3.24.65.24 1.09V41h-1.49v-.9h-.05a1.88 1.88 0 0 1-1.03.9c-.25.09-.55.13-.89.13Zm.4-1.13c.31 0 .58-.06.8-.18a1.35 1.35 0 0 0 .72-1.17v-.77a.73.73 0 0 1-.25.11 11.47 11.47 0 0 1-1.17.2 2.7 2.7 0 0 0-.61.16.98.98 0 0 0-.43.3.73.73 0 0 0-.16.49c0 .28.1.5.31.64.2.15.47.22.8.22Zm8.78-1.75v-3.8h1.54V41h-1.5v-1.16H352c-.15.36-.4.66-.73.9-.33.23-.75.35-1.24.35-.43 0-.8-.1-1.14-.29a2 2 0 0 1-.76-.84 2.97 2.97 0 0 1-.28-1.34v-4.17h1.54v3.93c0 .42.12.75.34 1 .23.24.53.36.9.36a1.41 1.41 0 0 0 1.18-.66c.14-.22.21-.5.21-.83Zm4.67-5.98V41h-1.54v-8.73h1.54Zm4.86 2.18v1.2h-3.77v-1.2h3.77Zm-2.84-1.56h1.55v6.14c0 .2.03.37.09.48.07.1.15.18.26.22.1.04.22.06.34.06a1.52 1.52 0 0 0 .46-.06l.26 1.2a3.4 3.4 0 0 1-.91.16c-.39.01-.74-.05-1.05-.18-.3-.13-.55-.33-.73-.6a1.8 1.8 0 0 1-.27-1.02v-6.4Zm8.37 1.56 1.32 2.42 1.34-2.42h1.63l-1.97 3.28 2 3.27h-1.62l-1.38-2.36L367 41h-1.63l2-3.27-1.95-3.28h1.64Zm10.66 1.73-1.4.16a1.12 1.12 0 0 0-.6-.7 1.43 1.43 0 0 0-.62-.12c-.32 0-.59.07-.8.2-.22.15-.33.33-.32.55 0 .19.06.35.2.46.15.12.39.22.72.3l1.12.24c.62.13 1.08.34 1.38.63.3.3.45.67.46 1.14 0 .41-.13.78-.36 1.1-.24.3-.57.55-.99.72-.42.18-.9.27-1.45.27-.8 0-1.44-.17-1.93-.5a2.05 2.05 0 0 1-.88-1.42l1.5-.14c.08.3.22.52.44.67.23.15.51.22.87.22.37 0 .66-.07.88-.22.23-.15.34-.34.34-.56a.58.58 0 0 0-.22-.46 1.52 1.52 0 0 0-.67-.29l-1.11-.23a2.66 2.66 0 0 1-1.4-.66c-.3-.31-.44-.7-.44-1.18 0-.4.1-.76.33-1.05.22-.3.53-.53.93-.7.4-.16.86-.24 1.38-.24.77 0 1.38.16 1.81.49.45.33.72.77.83 1.32Z" fill="#0F67F5"/><path d="M231.88 41v-7.27h.88v6.49h3.38V41h-4.26Zm7.12.13a2.2 2.2 0 0 1-.94-.2c-.29-.13-.5-.32-.68-.57a1.61 1.61 0 0 1-.24-.9c0-.32.06-.57.18-.77.12-.2.29-.35.5-.46.2-.11.43-.2.68-.25a33.94 33.94 0 0 1 1.56-.23c.2-.02.36-.06.45-.12.1-.05.15-.15.15-.28v-.03c0-.35-.1-.62-.29-.82-.19-.19-.48-.29-.86-.29-.4 0-.72.1-.94.27-.23.17-.39.36-.48.56l-.8-.29c.15-.33.33-.59.57-.77.24-.19.5-.32.78-.4a3.24 3.24 0 0 1 1.44-.04c.23.04.45.12.67.25.21.13.4.32.53.58.15.26.22.6.22 1.04V41h-.84v-.74h-.04a1.63 1.63 0 0 1-.81.72c-.23.1-.5.15-.81.15Zm.13-.76c.33 0 .6-.06.83-.19a1.33 1.33 0 0 0 .7-1.15v-.77a.68.68 0 0 1-.23.12 4 4 0 0 1-.87.15l-.35.04c-.22.03-.42.08-.61.14a.94.94 0 0 0-.45.28.71.71 0 0 0-.18.5c0 .3.11.52.33.66.21.15.5.23.82.23Zm4.01.63v-7.27h.84v2.68h.07l.25-.36c.12-.15.27-.28.48-.4.2-.12.5-.18.85-.18a2.17 2.17 0 0 1 2.03 1.33c.2.42.3.91.3 1.49 0 .57-.1 1.08-.3 1.5a2.14 2.14 0 0 1-2.02 1.32 1.7 1.7 0 0 1-.84-.17 1.56 1.56 0 0 1-.49-.4l-.26-.38h-.1V41h-.81Zm.82-2.73c0 .41.06.78.19 1.1.12.3.3.55.53.73.23.17.51.26.85.26.35 0 .64-.1.87-.28.24-.18.42-.43.54-.75.12-.32.18-.67.18-1.06 0-.38-.06-.73-.18-1.03a1.6 1.6 0 0 0-.53-.74 1.4 1.4 0 0 0-.88-.27 1.4 1.4 0 0 0-1.39.97c-.12.3-.18.67-.18 1.07Zm7.56 2.84c-.52 0-.97-.11-1.36-.34a2.34 2.34 0 0 1-.87-.98c-.2-.43-.3-.92-.3-1.47 0-.56.1-1.06.3-1.48a2.3 2.3 0 0 1 2.15-1.36c.28 0 .56.04.84.14a2.08 2.08 0 0 1 1.3 1.3c.14.34.2.77.2 1.28v.36h-4.2v-.73h3.35c0-.3-.06-.58-.18-.82a1.38 1.38 0 0 0-1.31-.78c-.33 0-.62.08-.87.25-.24.16-.42.37-.56.64-.13.26-.19.54-.19.84v.48c0 .42.07.76.21 1.05.15.28.35.5.6.65.26.15.56.22.9.22.22 0 .41-.03.6-.1a1.21 1.21 0 0 0 .76-.75l.8.23c-.08.27-.22.51-.42.72-.2.2-.45.37-.75.48-.3.12-.63.17-1 .17Zm4.38-7.38V41h-.84v-7.27h.84Z" fill="#E8178A"/><path d="M265 37.5h30" stroke="#E8178A"/><circle cx="294" cy="37.5" r="1" fill="#E8178A"/></svg>
